src/actions/32/zoom-original.svg

<svg viewBox="0 0 32 32" xmlns="http://www.w3.org/2000/svg">
 <defs>
  <style type="text/css">.ColorScheme-Text {
        color:#2e3440;
      }</style>
 </defs>
 <path class="ColorScheme-Text" d="m4 4v4h1v-3h3v-1h-4zm20 0v1h3v3h1v-4h-4zm-18 2v20h20v-20h-20zm1 1h18v18h-18v-18zm-3 17v4h4v-1h-3v-3h-1zm23 0v3h-3v1h4v-4h-1z" fill="currentColor"/>
</svg>

<svg xmlns="http://www.w3.org/2000/svg" viewBox="0 0 32 32">
  <defs id="defs3051">
    <style type="text/css" id="current-color-scheme">
      .ColorScheme-Text {
        color:#2e3440;
      }
      </style>
  </defs>
 <path 
    style="fill:currentColor;fill-opacity:1;stroke:none" 
	d="M 4 4 L 4 8 L 5 8 L 5 5 L 8 5 L 8 4 L 4 4 z M 24 4 L 24 5 L 27 5 L 27 8 L 28 8 L 28 4 L 24 4 z M 6 6 L 6 26 L 26 26 L 26 6 L 6 6 z M 7 7 L 25 7 L 25 25 L 7 25 L 7 7 z M 4 24 L 4 28 L 8 28 L 8 27 L 5 27 L 5 24 L 4 24 z M 27 24 L 27 27 L 24 27 L 24 28 L 28 28 L 28 24 L 27 24 z "
	class="ColorScheme-Text"
    />  
</svg>
